X:1
T:We Walk by Faith
T:William James Kirkpatrick
T:We Walk by Faith
T:Public Domain
T:Public Domain
T:Public Domain
C:William James Kirkpatrick
Z:Public Domain
%%score 1 { 2 | 3 }
L:1/8
M:4/4
K:Bb
V:1 treble 
V:2 treble 
V:3 bass 
V:1
 F<G F/ | B4- [DB]>A G>B | F4- [DF]>E D>F | B4- [DB]>d c>B | c4- [Ec]>F E>F | B4- [DB]>d c>G | %6
w: 1.~We walk by|faith, and oh, how sweet|The flow’rs that grow be-|neath our feet And frag-|rance breathe a- long the|way That leads the soul|
w: 2.~We walk by|faith; He wills it so|And marks the path that|we should go. And when,|at times, our sky is|dim, He gent- ly draws|
w: 3.~We walk by|faith di- vine- ly blest,|On Him we lean in|Him we rest. The more|we trust our shep- herd’s|care, The more His love|
w: 4.~And thus by|faith till life shall end|We’ll walk with Him our|dear- est friend. Till safe|we tread the fields of|light Where faith is lost|
 e4- [Ge]>G c>B | A4- [FA]>e G>A | B4- [DB]2 ||[M:3/4]"^Refrain" [Fd]2 | [GB]>[DA] [DG]2 [^Fd]2 | %11
w: to end- less day. *|||||
w: us close to Him. We|walk by faith, but not|a- lone,|Our|shep- herd’s ten- der|
w: ’tis ours to share. *|||||
w: in per- fect sight. *|||||
 [GB]>[DA] [DG]2 [DG]2 | [GB][GB] [EA][EG] [GB][Gc] | [^Fd]4 | [Ff]2 | [Fd]>[Fc] [FB]2 [Af]2 | %16
w: |||||
w: voice we hear And|feel His hand with- in our|own,|And|know that He is|
w: |||||
w: |||||
 [Fd]>[Fc] [FB]2 [DF]2 |[M:4/4] [EG][EG][DF][DB] [Fd]2 [Ec]2 | [DB]4- [DB]3/2 |] %19
w: |||
w: al- ways near. *|||
w: |||
w: |||
V:2
 z/ z2 | z3/2 (D/ D>D) z4 | z/ z/ z/ (D/ D>D) z4 | z/ z/ z/ (D/ D>D) z4 | z3/2 (E/ E>E) z4 | %5
 z3/2 (D/ D>D) z4 | z/ z/ z/ (G/ G>G) z4 | z/ z/ z/ (E/ E>E) z4 | z3/2 (D/ D3/2) z2 x/ || x2 | x6 | %11
 x6 | x6 | x4 | x2 | x6 | x6 | x8 | x11/2 |] %19
V:3
 z/ z2 | z3/2 ([B,,F,]/ [B,,F,]>[B,,F,] [B,,F,]3/2) z3/2 z | %2
 z3/2 ([B,,B,]/ [B,,B,]>[B,,B,] [B,,B,]3/2) z3/2 z/ z/ | %3
 z/ z/ z/ ([B,,F,]/ [B,,F,]>[B,,F,] [B,,F,]3/2) z3/2 z/ z/ | %4
 z3/2 ([F,A,]/ [F,A,]>[F,A,] [F,A,]3/2) z3/2 z | %5
 z3/2 ([B,,F,]/ [B,,F,]>[B,,F,] [B,,F,]3/2) z3/2 z | %6
 z3/2 ([E,B,]/ [E,B,]>[E,B,] [E,B,]3/2) z3/2 z | z3/2 ([F,C]/ [F,C]>[F,C] [F,C]3/2) z3/2 z | %8
 z3/2 ([B,,F,]/ [B,,F,]>[B,,F,] [B,,F,]2) || x2 | x6 | x6 | x6 | x4 | x2 | x6 | x6 | x8 | x11/2 |] %19

